src/assets/img/providers-white/beterlive.svg

<svg width="78" height="28" viewBox="0 0 78 28" fill="none" xmlns="http://www.w3.org/2000/svg">
<g clip-path="url(#clip0_4540_8081)">
<path opacity="0.996" fill-rule="evenodd" clip-rule="evenodd" d="M77.4785 0.0869141V17.2648V27.9151H43.1227L43.1227 17.2648H0.521484V0.0869141H77.4785ZM36.5951 6.87214C35.6221 5.50612 34.3051 5.01942 32.6442 5.41202V6.95803C33.9624 6.98661 35.2794 6.95798 36.5951 6.87214ZM19.7607 5.41207H31.4417V6.7863H19.7607V5.41207ZM16.4969 5.58385C17.8578 5.84413 18.2585 6.5885 17.6994 7.81698C17.384 8.06073 17.0405 8.2612 16.6687 8.4182C18.0452 8.57143 18.5318 9.28723 18.1288 10.5654C17.8315 10.9291 17.4592 11.1868 17.0123 11.3384C14.6646 11.453 12.317 11.453 9.96934 11.3384L8.93866 10.3078L15.638 10.136C16.2381 9.8821 16.2953 9.53855 15.8098 9.10532C13.2338 9.01943 10.6571 8.99074 8.07977 9.01943V11.4243H6.01842V5.58385H16.4969ZM37.6258 5.41207H44.4969V6.95808H39.6871V11.4243H37.6258V5.41207ZM57.5522 5.41207H45.8712V6.7863H57.5522V5.41207ZM71.4663 11.2526C70.6984 11.4219 69.8967 11.4791 69.0614 11.4243C68.4663 10.9155 67.8938 10.3715 67.3436 9.79243L62.1902 9.62065L63.3927 8.4182L68.8896 8.24642C69.2718 7.89856 69.3292 7.49775 69.0614 7.04396C66.4854 6.95809 63.9087 6.92946 61.3313 6.95807V11.4243H59.27V5.41206C62.6487 5.38344 66.0271 5.41206 69.4049 5.49795C71.0179 5.77477 71.6765 6.71956 71.3804 8.33231C71.0219 8.98541 70.4779 9.41486 69.7485 9.62065C70.2987 10.1997 70.8712 10.7437 71.4663 11.2526ZM31.4417 7.81698H19.7607V9.19121H31.4417V7.81698ZM45.8712 7.81698H57.5522V9.19121H45.8712V7.81698ZM31.4417 11.4243V10.2219H19.9325V11.4243H31.4417ZM45.8712 10.0501H57.5522V11.4243H45.8712V10.0501ZM15.4663 6.87218C13.0048 6.78631 10.5426 6.75768 8.07977 6.78629V7.81697C10.5999 7.84566 13.1193 7.81697 15.638 7.73108C15.8942 7.38379 15.8369 7.09751 15.4663 6.87218ZM50.8528 20.0133H49.4785V25.1667H54.4601V24.136H50.8528V20.0133ZM57.2086 25.1666H55.8344V20.0132C56.2549 19.8461 56.713 19.7889 57.2086 19.8414V25.1666ZM59.9571 19.8415H58.2393C59.0181 21.5712 59.8483 23.2889 60.7301 24.9949C61.4172 25.2239 62.1043 25.2239 62.7914 24.9949C63.5311 23.2864 64.3613 21.626 65.2822 20.0133C64.7097 19.7843 64.137 19.7843 63.5644 20.0133L61.7607 23.9642C61.1092 22.6046 60.508 21.2303 59.9571 19.8415ZM71.6381 20.0133V20.8722H67.6871C67.6353 21.3118 67.6926 21.7127 67.8589 22.0746H71.4663V23.1053H67.8589V24.136H71.6381V25.1667H66.3129V20.0133H71.6381Z" fill="white"/>
</g>
<defs>
<clipPath id="clip0_4540_8081">
<rect width="77.1288" height="28" fill="white" transform="translate(0.435608 0.000976562)"/>
</clipPath>
</defs>
</svg>

<svg width="78" height="28" fill="none" xmlns="http://www.w3.org/2000/svg"><g clip-path="url(#a)"><path opacity=".996" fill-rule="evenodd" clip-rule="evenodd" d="M77.478.087V27.915H43.123v-10.65H.52V.087h76.957ZM36.595 6.872c-.973-1.366-2.29-1.853-3.95-1.46v1.546c1.317.029 2.634 0 3.95-.086Zm-16.834-1.46h11.68v1.374h-11.68V5.412Zm-3.264.172c1.36.26 1.762 1.005 1.202 2.233a4.611 4.611 0 0 1-1.03.601c1.376.153 1.863.87 1.46 2.147-.298.364-.67.622-1.117.773a72.183 72.183 0 0 1-7.043 0l-1.03-1.03 6.699-.172c.6-.254.657-.597.172-1.03-2.576-.087-5.153-.115-7.73-.087v2.405H6.018v-5.84h10.479Zm21.129-.172h6.87v1.546h-4.809v4.466h-2.061V5.412Zm19.926 0h-11.68v1.374h11.68V5.412Zm13.914 5.84c-.768.17-1.57.227-2.405.172a22.871 22.871 0 0 1-1.717-1.632l-5.154-.171 1.203-1.203 5.497-.172c.382-.347.44-.748.171-1.202a174.018 174.018 0 0 0-7.73-.086v4.466H59.27V5.412c3.379-.029 6.757 0 10.135.086 1.613.277 2.272 1.222 1.975 2.834-.358.653-.902 1.083-1.631 1.289.55.579 1.122 1.123 1.717 1.632ZM31.442 7.818H19.76v1.374h11.68V7.817Zm14.43 0h11.68v1.374h-11.68V7.817Zm-14.43 3.607v-1.202h-11.51v1.202h11.51Zm14.43-1.374h11.68v1.374h-11.68V10.05ZM15.465 6.872a158.898 158.898 0 0 0-7.386-.086v1.031c2.52.029 5.04 0 7.558-.086.256-.347.199-.633-.172-.859Zm35.387 13.141h-1.375v5.154h4.982v-1.031h-3.607v-4.123Zm6.356 5.154h-1.375v-5.154c.42-.167.879-.224 1.375-.172v5.326Zm2.748-5.326H58.24c.78 1.73 1.61 3.448 2.491 5.154a3.178 3.178 0 0 0 2.061 0 50.5 50.5 0 0 1 2.491-4.982 2.234 2.234 0 0 0-1.718 0l-1.803 3.951a65.003 65.003 0 0 1-1.804-4.122Zm11.681.172v.86h-3.95c-.053.439.005.84.17 1.202h3.608v1.03H67.86v1.031h3.78v1.03h-5.326v-5.153h5.325Z" fill="#fff"/></g><defs><clipPath id="a"><path fill="#fff" transform="translate(.436 .001)" d="M0 0h77.129v28H0z"/></clipPath></defs></svg>
